icons/desktop/16/svg/dashboard-16.svg

<svg width="16" height="16" viewBox="0 0 16 16" fill="none" xmlns="http://www.w3.org/2000/svg">
<path d="M5 8.07812C5.41421 8.07812 5.75 8.41391 5.75 8.82812V10.375C5.74993 10.7892 5.41417 11.125 5 11.125C4.58583 11.125 4.25007 10.7892 4.25 10.375V8.82812C4.25 8.41391 4.58579 8.07812 5 8.07812Z" fill="black"/>
<path d="M8 7.375C8.41421 7.375 8.75 7.71079 8.75 8.125V10.375C8.75 10.7892 8.41421 11.125 8 11.125C7.58579 11.125 7.25 10.7892 7.25 10.375V8.125C7.25 7.71079 7.58579 7.375 8 7.375Z" fill="black"/>
<path d="M11 8.07812C11.4142 8.07812 11.75 8.41391 11.75 8.82812V10.375C11.7499 10.7892 11.4142 11.125 11 11.125C10.5858 11.125 10.2501 10.7892 10.25 10.375V8.82812C10.25 8.41391 10.5858 8.07812 11 8.07812Z" fill="black"/>
<path fill-rule="evenodd" clip-rule="evenodd" d="M8 1C9.35414 1 10.8879 1.06812 12.5615 1.26074C13.9499 1.42036 15 2.60179 15 3.99707V12.0059C15 13.3855 13.9763 14.5763 12.5859 14.7373C11.2006 14.8973 9.66484 15 8 15C6.64586 15 5.11208 14.9319 3.43848 14.7393C2.05011 14.5796 1 13.3982 1 12.0029V3.99414C1 2.61448 2.02371 1.42365 3.41406 1.2627C4.79938 1.10266 6.33516 1 8 1ZM2.5 6V12.0029C2.5 12.6376 2.97987 13.1765 3.60938 13.249C5.21967 13.4344 6.69621 13.5 8 13.5C9.60309 13.5 11.0814 13.401 12.4141 13.2471C13.0276 13.1759 13.5 12.6441 13.5 12.0059V6H2.5ZM8 2.5C6.39691 2.5 4.91858 2.59897 3.58594 2.75293C2.97243 2.82411 2.5 3.3559 2.5 3.99414V4.5H13.5V3.99707C13.5 3.36244 13.0201 2.82349 12.3906 2.75098C10.7803 2.56563 9.30379 2.5 8 2.5Z" fill="black"/>
</svg>

<!-- This Source Code Form is subject to the terms of the Mozilla Public
   - License, v. 2.0. If a copy of the MPL was not distributed with this
   - file, You can obtain one at http://mozilla.org/MPL/2.0/. -->
<svg xmlns="http://www.w3.org/2000/svg" width="16" height="16" fill="context-fill" fill-opacity="context-fill-opacity" viewBox="0 0 16 16">
    <path d="M5 8.078a.75.75 0 0 1 .75.75v1.547a.75.75 0 0 1-1.5 0V8.828a.75.75 0 0 1 .75-.75M8 7.375a.75.75 0 0 1 .75.75v2.25a.75.75 0 0 1-1.5 0v-2.25a.75.75 0 0 1 .75-.75M11 8.078a.75.75 0 0 1 .75.75v1.547a.75.75 0 0 1-1.5 0V8.828a.75.75 0 0 1 .75-.75" />
    <path fill-rule="evenodd" d="M8 1c1.354 0 2.888.068 4.562.26A2.76 2.76 0 0 1 15 3.998v8.009c0 1.38-1.024 2.57-2.414 2.731a40 40 0 0 1-9.148.002A2.76 2.76 0 0 1 1 12.003V3.994c0-1.38 1.024-2.57 2.414-2.731A40 40 0 0 1 8 1M2.5 6v6.003c0 .635.48 1.174 1.11 1.246a38.487 38.487 0 0 0 8.805-.002 1.24 1.24 0 0 0 1.085-1.241V6zM8 2.5c-1.603 0-3.081.099-4.414.253A1.24 1.24 0 0 0 2.5 3.994V4.5h11v-.503c0-.635-.48-1.174-1.11-1.246A38 38 0 0 0 8 2.5" clip-rule="evenodd" />
</svg>
